build/category/HomeAutocreditOutline.svg

<svg xmlns="http://www.w3.org/2000/svg" fill="none" viewBox="0 0 24 24" focusable="false"><path d="M0 0H24V24H0z"/><path fill="#74767B" fill-rule="evenodd" d="M12.919 2.38687L20.9998 10.4676C21.2713 10.7024 21.3011 11.1129 21.0663 11.3844C20.8316 11.656 20.4211 11.6858 20.1495 11.451C19.7743 11.0758 19.0341 10.3362 18.088 9.39095L18.087 9.38992C16.4096 7.71396 14.0853 5.39162 11.9998 3.3061L3.85004 11.451C3.57849 11.6858 3.16801 11.656 2.93322 11.3844C2.69843 11.1129 2.72823 10.7024 2.99978 10.4676L11.0805 2.38686C11.5882 1.87918 12.4113 1.87918 12.919 2.38687ZM5.00209 14.9796C5.00209 14.3367 5.20429 13.7411 5.54856 13.2528L6.86554 10.6414C7.37554 9.63011 8.41159 8.99226 9.54419 8.99226L14.4551 8.99226C15.5877 8.99226 16.6237 9.63011 17.1337 10.6414L18.4281 13.2079C18.7919 13.7044 19.0068 14.3169 19.0068 14.9796L19.0068 19.7C19.0068 20.418 18.4248 21 17.7068 21L16.244 21C15.526 21 14.944 20.418 14.944 19.7L14.944 18.9929L9.06492 18.9929L9.06492 19.7C9.06492 20.418 8.48289 21 7.76492 21L6.30209 21C5.58412 21 5.00209 20.418 5.00209 19.7L5.00209 14.9796ZM7.82798 11.9845L7.64413 11.9845L8.02629 11.2268C8.31528 10.6537 8.90238 10.2923 9.54419 10.2923L14.4551 10.2923C15.0969 10.2923 15.684 10.6537 15.973 11.2268L16.3551 11.9845L16.1809 11.9845C16.1233 11.9812 16.0653 11.9796 16.0068 11.9796L8.00209 11.9796C7.94365 11.9796 7.88559 11.9812 7.82798 11.9845ZM17.7068 17.6929L15.9668 17.6929L15.3795 16.3661C14.8989 15.2805 13.8234 14.5804 12.6362 14.5803L11.3802 14.5803C10.193 14.5803 9.11744 15.2804 8.6369 16.366L8.04957 17.6929L6.3021 17.6929L6.3021 15.8539L7.36535 15.8539C7.72433 15.8539 8.01535 15.5629 8.01535 15.2039C8.01535 14.8449 7.72433 14.5539 7.36535 14.5539L6.35583 14.5539C6.53427 13.8618 7.13764 13.3404 7.87114 13.2845L16.1378 13.2845C16.8713 13.3404 17.4746 13.8618 17.6531 14.5539L16.6041 14.5539C16.2451 14.5539 15.9541 14.8449 15.9541 15.2039C15.9541 15.5628 16.2451 15.8539 16.6041 15.8539L17.7068 15.8539L17.7068 17.6929ZM14.1907 16.8922L14.5451 17.6929L9.47124 17.6929L9.82564 16.8922C10.0979 16.2771 10.7074 15.8803 11.3802 15.8803L12.6362 15.8803C13.309 15.8804 13.9184 16.2771 14.1907 16.8922ZM7.76492 19.7L6.30209 19.7L6.30209 19.0164L7.76492 19.0164L7.76492 19.7ZM16.244 19.7L17.7068 19.7L17.7068 19.0164L16.244 19.0164L16.244 19.7Z"/></svg>

<svg xmlns="http://www.w3.org/2000/svg" fill="none" viewBox="0 0 24 24" focusable="false"><path fill="#74767B" fill-rule="evenodd" d="m21 10.46-8.09-8.08c-.5-.51-1.33-.51-1.83 0L3 10.46c-.28.24-.31.65-.07.92.23.27.64.3.92.07L12 3.3c2.08 2.09 4.4 4.41 6.08 6.08v.01c.95.94 1.69 1.68 2.06 2.06.28.23.69.2.92-.07a.65.65 0 0 0-.06-.92M5 14.97c0-.64.2-1.23.54-1.72l1.32-2.61a3.01 3.01 0 0 1 2.68-1.65h4.91c1.13 0 2.17.64 2.68 1.65l1.29 2.56c.37.5.58 1.11.58 1.77v4.73c0 .71-.58 1.3-1.3 1.3h-1.46c-.72 0-1.3-.59-1.3-1.3v-.71H9.06v.71c0 .71-.58 1.3-1.3 1.3H6.3c-.72 0-1.3-.59-1.3-1.3zm2.82-2.99h-.18l.38-.76c.29-.57.88-.93 1.52-.93h4.91c.64 0 1.23.36 1.52.93l.38.76h-.17c-.06 0-.12-.01-.18-.01H8c-.06 0-.12.01-.18.01m9.88 5.71h-1.74l-.59-1.33a3 3 0 0 0-2.74-1.78h-1.25c-1.19 0-2.27.7-2.75 1.78l-.59 1.33H6.3v-1.84h1.06c.36 0 .65-.29.65-.65s-.29-.65-.65-.65H6.35c.18-.69.78-1.21 1.52-1.27h8.26c.74.06 1.34.58 1.52 1.27H16.6c-.36 0-.65.29-.65.65s.29.65.65.65h1.1zm-3.51-.8.35.8H9.47l.35-.8c.27-.62.88-1.01 1.56-1.01h1.25c.67 0 1.28.39 1.56 1.01M7.76 19.7H6.3v-.69h1.46zm8.48 0h1.46v-.69h-1.46z"/></svg>
